!!!COM: Palestrina, Giovanni Perluigi da
!!!OPR: Missa Tu es pastor ovium
!!!OTL: Agnus I
**kern	**kern	**kern	**kern	**kern
*Ibass	*Itenor	*Itenor	*Icalto	*Icant
!Bassus	!Tenor 2	!Tenor 1	!Altus	!Cantus
*clefF4	*clefGv2	*clefGv2	*clefG2	*clefG2
*k[b-]	*k[b-]	*k[b-]	*k[b-]	*k[b-]
*G:dor	*G:dor	*G:dor	*G:dor	*G:dor
*M4/2	*M4/2	*M4/2	*M4/2	*M4/2
=1	=1	=1	=1	=1
0r	1G	0r	0r	0r
.	1G	.	.	.
=2	=2	=2	=2	=2
0r	1F	0r	0r	0r
.	[1B-	.	.	.
=3	=3	=3	=3	=3
0r	2B-]	0r	1g	0r
.	4A	.	.	.
.	4G	.	.	.
.	2B-	.	1g	.
.	2c	.	.	.
=4	=4	=4	=4	=4
0r	1d	0r	1f	1r
.	[1e-	.	[1b-	1g
=5	=5	=5	=5	=5
0r	1e-]	0r	2b-]	1g
.	.	.	4a	.
.	.	.	4g	.
.	2.d	.	2b-	1f
.	.	.	[2a	.
.	4c	.	.	.
=6	=6	=6	=6	=6
0r	2B-	0r	4a]	1b-
.	.	.	4g	.
.	4A	.	1g	.
.	4G	.	.	.
.	1A	.	.	1cc
.	.	.	2f#	.
=7	=7	=7	=7	=7
1G	2G	0r	2g	2.b-
.	2d	.	1b-	.
.	.	.	.	4cc
1G	1B-	.	.	2dd
.	.	.	4a	2ee
.	.	.	4g	.
=8	=8	=8	=8	=8
1F	1c	0r	1a	1.ff
1B-	1d	.	2f	.
.	.	.	[2b-	4ee-
.	.	.	.	4dd
=9	=9	=9	=9	=9
1c	0r	0r	2b-]	1.ee-
.	.	.	2a	.
1B-	.	.	2g	.
.	.	.	2f	2dd
=10	=10	=10	=10	=10
1c	1r	0r	4e-	2cc
.	.	.	4f	.
.	.	.	1g	2b-
1d	2r	.	.	1a
.	[2d	.	2f#	.
=11	=11	=11	=11	=11
2r	2d]	1G	2.g	2.b-
2d	2G	.	.	.
.	.	.	8f	4cc
.	.	.	8e	.
2G	2.B-	1G	2.d	1dd
[2B-	.	.	.	.
.	4c	.	4e	.
=12	=12	=12	=12	=12
2B-]	2d	1F	4f	0r
.	.	.	4g	.
2A	2.c	.	1f	.
1G	.	1B-	.	.
.	4B-	.	.	.
.	[2B-	.	2e	.
=13	=13	=13	=13	=13
1F	2B-]	1c	1f	1r
.	2A	.	.	.
2.G	4d	1B-	1r	1g
.	4c	.	.	.
.	4B-	.	.	.
4F	4A	.	.	.
=14	=14	=14	=14	=14
1E-	4G	1c	1r	1g
.	4F	.	.	.
.	2G	.	.	.
1D	2A	1d	1a	1f
.	[2d	.	.	.
=15	=15	=15	=15	=15
1BB-	4d]	1.f	1d	1b-
.	4c	.	.	.
.	1B-	.	.	.
2.F	.	.	[1f	1cc
.	2A	2c	.	.
4E-	.	.	.	.
=16	=16	=16	=16	=16
2D	2F	2d	2f]	1b-
2E-	1B-	1g	2B-	.
1C	.	.	1e-	1cc
.	2A	2c	.	.
=17	=17	=17	=17	=17
0BB-	0B-	1f	1d	1dd
.	.	2r	2r	2r
.	.	2B-	2f	2dd
=18	=18	=18	=18	=18
0r	0r	1B-	1b-	1dd
.	.	2f	2a	2cc
.	.	2d	2f	2b-
=19	=19	=19	=19	=19
0r	0r	2e-	2g	2cc
.	.	2f	2a	2dd
.	.	2.g	2.b-	2ee-
.	.	.	.	[2dd
.	.	4f	4a	.
=20	=20	=20	=20	=20
0r	0r	4d	2b-	2dd]
.	.	4e	.	.
.	.	2.f	2.a	4cc
.	.	.	.	4b-
.	.	.	.	4cc
.	.	4g	4g	4b-
.	.	2e-	[2g	4a
.	.	.	.	4g
=21	=21	=21	=21	=21
1r	1r	1d	2g]	1a
.	.	.	2f#	.
2r	2r	1G	2g	2g
2G	2g	.	2b-	2dd
=22	=22	=22	=22	=22
1G	1g	0r	1b-	1.dd
2d	2f	.	2a	.
2A	2e	.	2a	2cc
=23	=23	=23	=23	=23
2B-	2d	0r	2g	1r
2c	2e	.	2a	.
2.d	2.f	.	2b-	2r
.	.	.	[2a	2dd
4c	4e	.	.	.
=24	=24	=24	=24	=24
4A	2f	0r	2a]	2cc
4B-	.	.	.	.
2.c	2.e	.	4g	2.cc
.	.	.	4f	.
.	.	.	4g	.
4d	4d	.	4f	4b-
2B-	[2d	.	4e	2g
.	.	.	4d	.
=25	=25	=25	=25	=25
1A	2d]	1r	1e	1a
.	2c#	.	.	.
2D	2d	2r	2f	2a
2BB-	2f	2B-	2b-	2dd
=26	=26	=26	=26	=26
1BB-	1f	1B-	1b-	1dd
1F	1f	2c	2a	2cc
.	.	2d	2f	2a
=27	=27	=27	=27	=27
0r	0r	2B-	2g	2b-
.	.	2A	2a	2cc
.	.	4G	1b-	2.dd
.	.	4A	.	.
.	.	4B-	.	.
.	.	4c	.	4ee
=28	=28	=28	=28	=28
0r	2r	4d	2a	4ff
.	.	4e	.	4ee
.	2B-	4f	2b-	2dd
.	.	4d	.	.
.	2c	2e	2g	2cc
.	2d	2f	2f	[2b-
=29	=29	=29	=29	=29
0r	1e-	1.g	1.b-	2b-]
.	.	.	.	4a
.	.	.	.	4g
.	[1d	.	.	[1dd
.	.	4f#	4a	.
.	.	4e	4g	.
=30	=30	=30	=30	=30
0r	0d]	2f#	2a	0dd]
.	.	1g	2b-	.
.	.	.	1a	.
.	.	2f#	.	.
=31	=31	=31	=31	=31
1.G	2r	1g	2r	1.b
.	1d	.	1g	.
.	.	1r	.	.
2G	2d	.	2g	2b
=32	=32	=32	=32	=32
1c	1e	2r	1g	1cc
.	.	1c	.	.
[1F	2f	.	2.cc	1a
.	[2f	2c	.	.
.	.	.	4b-	.
=33	=33	=33	=33	=33
1F]	4f]	2c	4a	2.ff
.	4e	.	4g	.
.	4d	2A	2a	.
.	4c	.	.	4ee
2.B-	2.d	2r	1f	4dd
.	.	.	.	4cc
.	.	[2d	.	[2dd
4A	4c	.	.	.
=34	=34	=34	=34	=34
1G	1B-	2d]	1g	4dd]
.	.	.	.	4cc
.	.	2e	.	1b-
1F	1c	2.f	1r	.
.	.	.	.	2a
.	.	4e-	.	.
=35	=35	=35	=35	=35
0BB-	2B-	2d	2r	2b-
.	1B-	1f	1b-	1dd
.	2B-	2f	2b-	2dd
=36	=36	=36	=36	=36
0r	1e-	0g	1b-	0ee-
.	1c	.	1cc	.
=37	=37	=37	=37	=37
0r	2.g	1G	1b-	2dd
.	.	.	.	2.dd
.	4f	.	.	.
.	1e-	2r	2.g	.
.	.	.	.	4cc
.	.	[2g	.	4cc
.	.	.	4a	8b-
.	.	.	.	8cc
=38	=38	=38	=38	=38
0r	2.d	4g]	2b-	0dd
.	.	4f	.	.
.	.	2f	2a	.
.	4c	.	.	.
.	1B-	4d	2.b-	.
.	.	4e	.	.
.	.	[2f	.	.
.	.	.	4a	.
=39	=39	=39	=39	=39
1r	1c	2f]	1g	1.cc
.	.	2e	.	.
2r	2r	2f	2a	.
[2BB-	[2B-	[2d	[2f	[2dd
=40	=40	=40	=40	=40
2BB-]	2B-]	2d]	2f]	2dd]
2BB-	2B-	2d	2f	2dd
1E-	2G	[1e-	1g	1b-
.	2G	.	.	.
=41	=41	=41	=41	=41
1C	1c	1e-]	1.g	1cc
2.G	2B-	2d	.	1dd
.	[2G	[2d	[2b-	.
4F	.	.	.	.
=42	=42	=42	=42	=42
1E-	2G]	4d]	2b-]	1g
.	.	8c	.	.
.	.	8B-	.	.
.	2G	2c	4a	.
.	.	.	4g	.
1D	1A	[1d	4f	[1dd
.	.	.	4g	.
.	.	.	[2a	.
=43	=43	=43	=43	=43
2.BB-	1B-	0d]	2a]	0dd]
.	.	.	1g	.
4C	.	.	.	.
1D	1A	.	.	.
.	.	.	2f#	.
=44	=44	=44	=44	=44
0G	0G	0d	0g	0b
==	==	==	==	==
*-	*-	*-	*-	*-
!!!CDT: 1525/^1526/-1594/2/2
!!!OCY: Italia
!!!AGN: Mass (Parody)
!!!AST: renaissance, vocal
!!!ASW: Motet (Palestrina)
!!!PWK: Masses, Book 7
!!!RNB: Cadence finals: D
!!!YOR: Le Opere Complete, v. 23, p. 115
!!!YOO: Rome, Italy: Fratelli Scalera
!!!END: 1992//
!!!EED: John Miller
!!!YEC: Copyright 2000, John Miller
!!!YEN: United States of America
!!!YEM: Rights to all derivative electronic formats reserved.
!!!YEM: Refer to licensing agreement for further details.
!!!YEM: This file must be accompanied by the licensing agreement.
!!!YEM: A copy of the licensing agreement may be found at http://www.music-cog.ohio-state.edu/HumdrumDatabases/Palestrina/license.txt
!!!EMD: converted to Humdrum by Bret Aarden
